X:1
T:Title
%%score 1 2
L:1/8
Q:1/4=112
M:4/4
K:Bb
V:1 treble nm="Grand Piano, Soprano"
V:2 bass nm="Choir Pad, Botafogo, Samuel L. Speck"
V:1
 [DF]2 [DF]2 [Fd]2 [Fd]2 | [FB]2 [EG]2 [EG]2 [GB]2 | [EG]2 [DF]2 [FB]2 [EA]2 | [DB]2 [Fc]6 | %4
w: By~Samuel~L.~Speck,~1897 * * *||||
 [EF]2 [DF]2 [Fd]2 [Fd]2 | [FB]2 [EG]2 [EG]2 [GB]2 | [GB]2 [Fc]2 [Fc]2 [DB]2 | [EA]2 [DB]6 | %8
w: ||||
 [DF]2 [Fc]2 [Fc]2 [Fc]2 | F2 [Fd]2 [Fd]2 [Fd]2 | [FB]2 [EG]2 [FB]2 [EA]2 | [DB]2 [Fc]6 | %12
w: ||||
 [EF]2 [DF]2 [Fd]2 [Fd]2 | [FB]2 [EG]2 [EG]2 [GB]2 | [GB]2 [Fc]2 [Fc]2 [DB]2 | [EA]2 [DB]6- | %16
w: ||||
 [DB]2 z2 z4 |] %17
w: |
V:2
 [B,,B,]2 [B,,B,]2 [B,,B,]2 [B,,B,]2 | [D,B,]2 [E,B,]2 [E,B,]2 [E,B,]2 | %2
 [E,B,]2 [B,,B,]2 [D,B,]2 [C,F,]2 | [B,,B,]2 [F,A,]6 | [F,A,]2 [B,,B,]2 [B,,B,]2 [B,,B,]2 | %5
 [D,B,]2 [E,B,]2 [E,B,]2 [E,B,]2 | [E,B,]2 [F,A,]2 [F,A,]2 [F,B,]2 | [F,C]2 [B,,B,]6 | %8
 [B,,B,]2 [F,A,]2 [F,A,]2 [F,A,]2 | [F,A,]2 [B,,B,]2 [B,,B,]2 [B,,B,]2 | %10
 [D,B,]2 [E,B,]2 [D,B,]2 [C,F,]2 | [B,,B,]2 [F,A,]6 | [F,A,]2 [B,,B,]2 [B,,B,]2 [B,,B,]2 | %13
 [D,B,]2 [E,B,]2 [E,B,]2 [E,B,]2 | [E,B,]2 [F,A,]2 [F,A,]2 [F,B,]2 | [F,C]2 [B,,B,]6- | %16
 [B,,B,]2 z2 z4 |] %17

